TO RECURSE :side :num
	REPEAT :num [
		REPEAT 3 [
			FD :side
			RT 90
		]
		
		REPEAT 3 [
			FD 1.5 * :side
			RT 180 - arctan(3)
			FD sqrt((:side/2)*(:side/2) * 10)
			RT 90 + arctan(3)
			FD :side / 2
			LT 90
		]

		FD :side
		RT 90
		FD 3/2 * :side
		RT 180 - arctan(3)
		
		MAKE "side sqrt((:side/2)*(:side/2) * 10)
	]
END

